packages/core/src/svgs/tokens/mono/INFRA.svg

<svg width="24" height="24" viewBox="0 0 24 24" fill="none" xmlns="http://www.w3.org/2000/svg">
<path fill-rule="evenodd" clip-rule="evenodd" d="M11.9999 2L20.2352 9.05881V14.9411L11.9999 22L3.76465 15.2471V9.05881L11.9999 2ZM4.35288 9.81177V14.4823L7.19994 12.147L4.35288 9.81177ZM7.67052 12.5294L4.52348 15.1058L11.7058 20.9882V15.8411L7.67052 12.5294ZM12.2941 15.8411V20.9765L19.4706 14.8235L16.4352 12.4471L12.2941 15.8411ZM16.9058 12.0588L19.6469 14.2058V9.81177L16.9058 12.0588ZM19.4822 9.18822L16.4235 11.6882L12.2941 8.45292V3.02941L19.4822 9.18822ZM11.7058 3.02941V8.45881L7.67052 11.7705L4.51759 9.18234L11.7058 3.03528V3.02941ZM11.9999 8.97645L8.13524 12.1529L11.9999 15.3117L15.9588 12.0647L12.0058 8.97058L11.9999 8.97645Z" fill="white"/>
</svg>

<svg xmlns="http://www.w3.org/2000/svg" width="24" height="24" fill="none" viewBox="0 0 24 24">
    <path fill="#fff" fill-rule="evenodd" d="m12 2 8.235 7.059v5.882L12 22l-8.235-6.753V9.06zM4.353 9.812v4.67L7.2 12.147zm3.318 2.717-3.148 2.577 7.183 5.882v-5.147zm4.623 3.312v5.136l7.177-6.154-3.036-2.376zm4.612-3.782 2.74 2.147V9.812zm2.576-2.87-3.058 2.5-4.13-3.236V3.029zm-7.776-6.16v5.43L7.67 11.77 4.518 9.182l7.188-6.147zM12 8.976l-3.865 3.177L12 15.312l3.959-3.247-3.953-3.094z" clip-rule="evenodd"/>
</svg>
